Font-Source/Egyptian2/svg-my/134EB.svg

<?xml version="1.0" encoding="UTF-8" standalone="no"?>
<svg
   width="900"
   height="1000"
   id="svg2241"
   sodipodi:version="0.32"
   inkscape:version="1.4.2 (f4327f4, 2025-05-13)"
   sodipodi:docname="134EB.svg"
   inkscape:output_extension="org.inkscape.output.svg.inkscape"
   sodipodi:modified="true"
   version="1.1"
   xmlns:inkscape="http://www.inkscape.org/namespaces/inkscape"
   xmlns:sodipodi="http://sodipodi.sourceforge.net/DTD/sodipodi-0.dtd"
   xmlns="http://www.w3.org/2000/svg"
   xmlns:svg="http://www.w3.org/2000/svg"
   xmlns:rdf="http://www.w3.org/1999/02/22-rdf-syntax-ns#"
   xmlns:cc="http://creativecommons.org/ns#"
   xmlns:dc="http://purl.org/dc/elements/1.1/">
  <path
     id="path2243"
     style="fill:#000000;stroke:none;stroke-width:0.999999"
     d="M 184.92969,0.0078125 C 174.14343,0.41035164 164.06552,16.127859 154.69727,47.160156 145.63123,15.126817 133.24177,1.5280748 117.52734,6.3632812 c -15.11006,9.0660448 -9.97277,26.2909028 15.41211,51.6757808 -19.94527,11.48367 -29.91797,25.38425 -29.91797,41.703126 0,16.318832 15.10996,25.386002 45.33008,27.199222 28.77076,-7.33373 56.3565,-3.34687 82.75782,11.96093 0.99721,8.6439 2.46853,18.50596 4.27539,29.74219 -53.98346,82.71331 -107.33841,145.38473 -102.59375,199.63086 37.24091,31.03978 79.07624,52.55004 125.50586,64.5332 46.42957,11.98317 122.96529,43.7372 130.06445,77.68946 0.52345,20.80367 3.27728,40.83644 13.38281,59.3457 6.96172,11.86067 26.49677,88.06177 49.98242,168.46875 -16.82795,-19.57572 -78.32493,-100.66573 -105.17773,-124.07227 -4.71055,-7.71563 -11.13458,-13.01097 -18.98828,-15.82226 -13.08949,-4.68549 -46.25132,7.96694 -54.54297,30.0625 -1.4351,28.28194 -2.18328,53.42106 -2.14063,75.67383 2.58804,58.28524 82.14903,171.37542 78.65039,206.8164 -3.49862,35.44112 -24.35337,28.28624 -49.79687,36.76563 -25.44382,8.47851 -50.17575,15.4009 -74.36719,20.57031 -24.19144,5.16949 -36.95002,10.44307 -38.07031,15.63672 -1.12029,5.1937 1.35144,9.00424 7.35351,11.44922 6.00205,2.44472 19.42407,3.69011 40.30274,3.8164 20.87875,0.12391 40.71505,-1.67382 59.47656,-5.49218 18.76153,-3.81817 34.77876,-2.39223 47.8418,4.46875 40.87079,9.52175 83.29893,-19.66082 54.54297,-58.35938 1.31305,-53.26412 -0.85554,-75.00919 -4.375,-108.62109 41.01501,53.05719 114.44462,150.63569 150.32031,156.64648 32.42115,5.43202 85.3517,-12.2847 94.28711,-49.51562 14.09901,-47.29708 12.2177,-94.37143 3.81641,-142.31446 -18.64662,-91.31359 -9.93409,-221.646 17.3125,-292.54101 10.25127,-33.13707 82.42873,-51.9307 129.77734,-59.50781 47.34862,-7.57711 91.01675,-25.07111 131.0039,-52.48243 9.80995,-53.56229 -37.43338,-120.96063 -83.42382,-208.37109 3.10473,-12.044 5.5757,-22.2019 6.83008,-31.90039 42.512,-3.60337 63.76757,-8.37192 63.76757,-14.30469 -18.93147,-11.35888 -43.96705,-16.34729 -64.93164,-18.45508 -1.11558,-5.31587 -2.71471,-10.92469 -4.875,-17.01367 -9.83685,-7.186255 -27.53346,-9.602296 -55.81445,-10.925779 -4.884,-12.601479 -13.35368,-16.132256 -25.41016,-10.589843 0.095,7.173384 0.80706,14.363384 2.04883,21.505862 -7.65455,-2.231358 -15.94555,-4.608655 -25.76172,-7.132816 -42.30814,-10.879225 -174.10379,-13.295912 -314.41406,13.619146 -35.25136,6.7621 -70.38425,5.81112 -101.50977,1.86718 4.07322,-11.331491 7.29924,-23.443824 9.67969,-36.337888 -11.48363,-6.648423 -20.24699,-3.927877 -26.29101,8.160156 -28.2805,-1.333984 -46.12445,-0.587757 -56.5918,5.644531 C 222.75089,72.397921 204.38972,64.822215 175.54883,61.041016 196.09851,46.535359 205.76936,25.100098 204.56055,15.429688 203.35177,5.7592366 197.15802,0.62003025 185.97656,0.015625 185.62714,-0.00326266 185.27764,-0.00517263 184.92969,0.0078125 Z M 666.3418,129.09961 c 22.1989,0.21885 41.33572,1.68332 56.06054,4.47461 20.46069,3.8786 35.55053,7.64183 48.35938,10.75586 5.76282,12.61597 12.77625,24.60086 20.45508,35.52734 20.34158,85.31761 42.36641,140.11923 62.30468,180.9707 -72.94554,15.70065 -120.39718,33.5544 -170.58984,37.9336 -33.76161,-8.25465 -68.20662,-14.39152 -87.67969,-15.25977 -8.57801,-11.43734 -13.14009,-21.48645 -13.77539,-30.06445 20.65069,-4.76556 37.95855,-15.55231 51.9375,-32.39062 14.29667,-16.83831 21.25914,-44.19326 20.94141,-82 -0.31767,-37.48906 -16.64504,-61.90838 -49.05078,-73.34571 -24.30435,-8.57801 -48.87818,-12.53515 -73.71875,-11.82031 -44.84577,1.29052 -80.13797,13.33103 -103.12891,75.67187 -2.22393,12.07274 -7.6173,23.39664 -16.19531,33.88086 -8.578,10.16655 -14.11853,21.39471 -16.66016,33.78516 0,6.98949 4.4129,10.66473 13.3086,10.98242 8.89572,0.31788 10.02352,3.31063 3.35156,9.0293 -6.18278,1.37393 -3.18123,7.50205 0,8.5625 -4.13017,4.44785 -4.13017,7.53455 0,9.12305 4.44784,1.90623 6.01904,5.04629 4.74805,9.49414 -0.95311,4.76555 -0.12357,10.60231 2.41796,17.59179 2.5416,7.3072 15.19564,10.98243 38.07032,10.98243 l 29.59765,-4.28321 c -1.27083,4.76556 -0.53315,10.45716 2.32618,17.12891 -57.8483,1.95862 -89.20426,8.6345 -110.46094,12.93164 -49.56098,-9.066 -106.99828,-32.408 -178.15039,-54.87891 23.68069,-38.80208 50.74661,-91.2975 78.99804,-174.33203 3.29944,-3.55991 6.43698,-7.26965 9.41211,-11.1289 32.46909,4.39241 77.41991,12.63355 131.11133,0.25 85.25804,-19.66419 179.41305,-30.22882 246.00977,-29.57227 z m -138.84961,46.6543 c 15.31431,-0.32267 33.33345,1.84381 53.98437,6.60937 32.72361,7.30718 49.19985,27.99396 49.51758,61.98828 0.31929,33.67661 -9.19627,58.24306 -28.57617,73.81055 -19.06223,15.88519 -34.94618,17.01303 -47.6543,3.35156 -5.71866,-5.71867 -6.84758,-10.28064 -3.35156,-13.77539 9.21339,-2.85933 13.47919,-10.0646 12.84375,-21.50195 9.84883,-12.07272 14.80078,-22.32435 14.80078,-30.90235 1.17831,-28.87339 -27.84165,-24.76122 -38.62695,-16.2871 -31.1348,-20.65076 -58.10384,-29.77472 -80.97852,-27.55079 19.00933,-33.43018 55.72784,-35.48274 68.04102,-35.74218 z m -58.64063,51.75195 c 19.43536,0.5957 40.16227,9.19554 62.08399,25.875 l -3.34961,9.49219 c 3.81245,2.22393 7.4877,2.91014 10.98242,1.95703 5.08328,-13.34357 10.77093,-20.0117 17.125,-20.01172 7.62488,-0.9531 11.15298,2.86924 10.51758,11.44726 0,7.94259 -4.35931,16.86406 -12.9375,26.7129 0,22.44824 -17.4438,12.39784 -15.73047,3.25781 -3.81246,14.29667 -0.43135,32.43584 10.05469,54.35742 10.1665,22.23926 17.96038,39.25081 23.36132,51.00586 5.40099,11.75505 13.93441,17.97981 25.68946,18.61523 5.06975,0.27401 16.58306,1.3769 20.99218,3.26368 25.68173,10.9899 21.4173,30.37659 17.54297,61.51757 -39.37737,93.60545 -33.43507,179.32598 -27.73632,285.18946 -2.38216,44.08809 25.38611,73.54623 0.55859,166.51562 0,0 -16.28823,34.06732 -60.2207,29.59961 -43.16224,-4.38913 -174.01941,-207.02795 -178.89649,-212.125 -22.76694,-23.79381 -49.77703,-51.91603 -65.0625,-97.82422 -4.78816,-14.38069 15.60712,-19.35175 23.82813,-16.93945 22.13003,6.49361 49.16005,65.57814 122.39648,136.26562 14.39947,10.11589 39.13299,13.18157 32.76367,-14.14843 -8.30329,-21.00086 -49.74974,-184.05801 -57.70898,-195.55469 -8.57801,-12.39045 -10.97847,-47.74366 -7.16602,-106.20117 -1.5885,-20.01535 14.83252,-30.06446 49.14453,-30.06446 35.58284,0 51.91012,-8.09007 49.05079,-24.29296 l -6.69922,-19.54688 c -3.49475,-12.07275 -4.91861,-19.57231 -4.28321,-22.43164 -6.98948,-1.90623 -16.79575,-1.36911 -29.5039,1.49023 -21.60386,1.90622 -34.34966,0.9277 -38.16211,-2.88476 -3.81246,-3.81244 -5.08727,-9.05869 -3.81641,-15.73047 l 15.26563,-5.21289 c 3.49473,-1.90622 4.17701,-5.13808 1.95312,-9.58594 l -21.5,-1.86328 c 5.08326,-10.80193 4.49276,-18.00526 -1.86133,-21.5 -8.57804,0.6354 -12.8457,-1.52416 -12.8457,-6.60742 2.22393,-4.13015 6.63877,-11.77878 13.31055,-22.89844 6.67179,-11.11961 14.76186,-18.22921 24.29297,-21.40625 9.84882,-3.17706 19.5099,-2.73368 29.04101,1.39649 9.53112,3.81244 18.59777,6.80341 27.17578,9.02734 l 2.42188,-5.67773 c -7.9426,-1.90622 -16.18177,-5.14004 -24.75977,-9.5879 -16.52061,-8.57799 -30.83546,-8.57799 -42.9082,0 1.5885,-5.71866 3.75004,-9.98441 6.60937,-12.84375 6.19521,-1.5885 12.5079,-2.2454 18.98633,-2.04687 z m -0.83594,24.47852 c -7.9426,0 -13.18882,1.27479 -15.73046,3.8164 -2.22394,2.54162 -5.21684,3.81641 -9.0293,3.81641 v 4.28125 l 6.60937,0.92968 c 8.578,8.57802 22.15523,9.70567 40.58204,3.35157 l 11.91406,3.34961 0.92969,-8.65625 -10.51758,-0.92969 c -10.16651,-5.71863 -18.40373,-9.00588 -24.75782,-9.95898 z"
     sodipodi:nodetypes="scccsccccscsccsccscssccscccscccscccccccccsscccccsssssccccccccssccccccccccccccccssscccccccccscccccccccsssccccsssccscsccccsccccccscccccccccccccccccc" />
  <metadata
     id="metadata2248">
    <rdf:RDF>
      <cc:Work
         rdf:about="">
        <dc:format>image/svg+xml</dc:format>
        <dc:type
           rdf:resource="http://purl.org/dc/dcmitype/StillImage" />
      </cc:Work>
    </rdf:RDF>
  </metadata>
  <defs
     id="defs2246" />
  <sodipodi:namedview
     inkscape:window-height="998"
     inkscape:window-width="1680"
     inkscape:pageshadow="2"
     inkscape:pageopacity="0.0"
     guidetolerance="10.0"
     gridtolerance="10.0"
     objecttolerance="10.0"
     borderopacity="1.0"
     bordercolor="#666666"
     pagecolor="#ffffff"
     id="base"
     inkscape:showpageshadow="2"
     inkscape:pagecheckerboard="0"
     inkscape:deskcolor="#d1d1d1"
     inkscape:zoom="1.0677312"
     inkscape:cx="472.49718"
     inkscape:cy="141.88964"
     inkscape:window-x="-8"
     inkscape:window-y="-8"
     inkscape:window-maximized="1"
     inkscape:current-layer="svg2241"
     showguides="true">
    <sodipodi:guide
       position="536.5957,846.20117"
       orientation="0,-1"
       id="guide6"
       inkscape:locked="false" />
    <sodipodi:guide
       position="378.96094,603.79883"
       orientation="1,0"
       id="guide7"
       inkscape:locked="false" />
  </sodipodi:namedview>
</svg>

<?xml version="1.0" encoding="UTF-8" standalone="no"?>
<svg
   width="900"
   height="1000"
   id="svg2241"
   sodipodi:version="0.32"
   inkscape:version="1.4.2 (f4327f4, 2025-05-13)"
   sodipodi:docname="134EB.svg"
   inkscape:output_extension="org.inkscape.output.svg.inkscape"
   sodipodi:modified="true"
   version="1.1"
   xmlns:inkscape="http://www.inkscape.org/namespaces/inkscape"
   xmlns:sodipodi="http://sodipodi.sourceforge.net/DTD/sodipodi-0.dtd"
   xmlns="http://www.w3.org/2000/svg"
   xmlns:svg="http://www.w3.org/2000/svg"
   xmlns:rdf="http://www.w3.org/1999/02/22-rdf-syntax-ns#"
   xmlns:cc="http://creativecommons.org/ns#"
   xmlns:dc="http://purl.org/dc/elements/1.1/">
  <metadata
     id="metadata2248">
    <rdf:RDF>
      <cc:Work
         rdf:about="">
        <dc:format>image/svg+xml</dc:format>
        <dc:type
           rdf:resource="http://purl.org/dc/dcmitype/StillImage" />
      </cc:Work>
    </rdf:RDF>
  </metadata>
  <defs
     id="defs2246" />
  <sodipodi:namedview
     inkscape:window-height="998"
     inkscape:window-width="1680"
     inkscape:pageshadow="2"
     inkscape:pageopacity="0.0"
     guidetolerance="10.0"
     gridtolerance="10.0"
     objecttolerance="10.0"
     borderopacity="1.0"
     bordercolor="#666666"
     pagecolor="#ffffff"
     id="base"
     inkscape:showpageshadow="2"
     inkscape:pagecheckerboard="0"
     inkscape:deskcolor="#d1d1d1"
     inkscape:zoom="0.53386562"
     inkscape:cx="341.84632"
     inkscape:cy="437.37598"
     inkscape:window-x="-8"
     inkscape:window-y="-8"
     inkscape:window-maximized="1"
     inkscape:current-layer="svg2241"
     showguides="true">
    <sodipodi:guide
       position="536.5957,846.20117"
       orientation="0,-1"
       id="guide6"
       inkscape:locked="false" />
    <sodipodi:guide
       position="378.96094,603.79883"
       orientation="1,0"
       id="guide7"
       inkscape:locked="false" />
  </sodipodi:namedview>
  <path
     id="path2243"
     style="fill:#000000;stroke:none;stroke-width:0.999999"
     d="M 184.92969 0.0078125 C 174.14343 0.41035164 164.06552 16.127859 154.69727 47.160156 C 145.63123 15.126817 133.24177 1.5280748 117.52734 6.3632812 C 102.41728 15.429326 107.55457 32.654184 132.93945 58.039062 C 112.99418 69.522732 103.02148 83.423312 103.02148 99.742188 C 103.02148 116.06102 118.13144 125.12819 148.35156 126.94141 C 177.12232 119.60768 204.70806 123.59454 231.10938 138.90234 C 232.10659 147.54624 233.57791 157.4083 235.38477 168.64453 C 181.40131 251.35784 128.04636 314.02926 132.79102 368.27539 C 170.03193 399.31517 211.86726 420.82543 258.29688 432.80859 C 304.72645 444.79176 381.26217 476.54579 388.36133 510.49805 L 388.89844 516.88086 C 388.89844 537.53161 393.1661 555.22937 401.74414 569.84375 C 408.70586 581.70442 428.24091 657.90552 451.72656 738.3125 C 434.89861 718.73678 373.40163 637.64677 346.54883 614.24023 C 341.83828 606.5246 335.41425 601.22926 327.56055 598.41797 C 314.47106 593.73248 281.30923 606.38491 273.01758 628.48047 C 271.58248 656.76241 270.8343 681.90153 270.87695 704.1543 C 273.46499 762.43954 353.02598 875.52972 349.52734 910.9707 C 346.02872 946.41182 325.17397 939.25694 299.73047 947.73633 C 274.28665 956.21484 249.55472 963.13723 225.36328 968.30664 C 201.17184 973.47613 188.41326 978.74971 187.29297 983.94336 C 186.17268 989.13706 188.64441 992.9476 194.64648 995.39258 C 200.64853 997.8373 214.07055 999.08269 234.94922 999.20898 C 255.82797 999.33289 275.66427 997.53516 294.42578 993.7168 C 313.18731 989.89863 329.20454 991.32457 342.26758 998.18555 C 383.13837 1007.7073 425.56651 978.52473 396.81055 939.82617 C 398.1236 886.56205 395.95501 864.81698 392.43555 831.20508 C 433.45056 884.26227 506.88017 981.84077 542.75586 987.85156 C 575.17701 993.28358 628.10756 975.56686 637.04297 938.33594 C 651.14198 891.03886 649.26067 843.96451 640.85938 796.02148 C 622.21276 704.70789 630.92529 574.37548 658.17188 503.48047 C 668.42315 470.3434 740.60061 451.54977 787.94922 443.97266 C 835.29784 436.39555 878.96597 418.90155 918.95312 391.49023 C 928.76307 337.92794 881.51974 270.5296 835.5293 183.11914 C 838.63403 171.07514 841.105 160.91724 842.35938 151.21875 C 884.87138 147.61538 906.12695 142.84683 906.12695 136.91406 C 891.01689 127.84802 870.46782 121.80324 844.47852 118.78125 C 843.36762 118.67489 842.27398 118.56743 841.19531 118.45898 C 840.07973 113.14311 838.4806 107.53429 836.32031 101.44531 C 826.48346 94.259055 808.78685 91.843014 780.50586 90.519531 C 775.62186 77.918052 767.15218 74.387275 755.0957 79.929688 C 755.1907 87.103072 755.90276 94.293072 757.14453 101.43555 C 749.48998 99.204192 741.19898 96.826895 731.38281 94.302734 C 689.07467 83.423509 560.21209 93.416212 416.96875 107.92188 C 381.43543 112.99805 346.5845 113.733 315.45898 109.78906 C 319.5322 98.457569 322.75822 86.345236 325.13867 73.451172 C 313.65504 66.802749 304.89168 69.523295 298.84766 81.611328 C 270.56716 80.277344 252.72321 81.023571 242.25586 87.255859 C 222.75089 72.397921 204.38972 64.822215 175.54883 61.041016 C 196.09851 46.535359 205.76936 25.100098 204.56055 15.429688 C 203.35177 5.7592366 197.15802 0.62003025 185.97656 0.015625 C 185.62714 -0.00326266 185.27764 -0.00517263 184.92969 0.0078125 z M 665.71484 134.41406 C 687.8232 133.78699 706.97463 134.17836 721.93359 135.91602 C 742.59498 138.31608 757.79915 141.34013 770.66602 144.12109 C 776.44681 156.81398 783.49543 168.87041 791.2168 179.85742 C 811.55838 265.17503 833.58321 319.97665 853.52148 360.82812 C 780.57594 376.52877 733.1243 394.38252 682.93164 398.76172 C 649.17003 390.50707 614.72502 384.3702 595.25195 383.50195 C 586.67394 372.06461 582.11186 362.0155 581.47656 353.4375 C 602.12725 348.67194 619.43511 337.88519 633.41406 321.04688 C 647.71073 304.20857 654.6732 276.85362 654.35547 239.04688 C 654.0378 201.55782 637.71043 177.1385 605.30469 165.70117 C 581.00034 157.12316 556.42651 153.16602 531.58594 153.88086 C 486.74017 155.17138 451.44797 167.21189 428.45703 229.55273 C 426.2331 241.62547 420.83973 252.94937 412.26172 263.43359 C 403.68372 273.60014 398.14319 284.8283 395.60156 297.21875 C 395.60156 304.20824 400.01446 307.88348 408.91016 308.20117 C 417.80588 308.51905 418.93368 311.5118 412.26172 317.23047 C 406.07894 318.6044 409.08049 324.73252 412.26172 325.79297 C 408.13155 330.24082 408.13155 333.32752 412.26172 334.91602 C 416.70956 336.82225 418.28076 339.96231 417.00977 344.41016 C 416.05666 349.17571 416.8862 355.01247 419.42773 362.00195 C 421.96933 369.30915 434.62337 372.98438 457.49805 372.98438 L 487.0957 368.70117 C 485.82487 373.46673 486.56255 379.15833 489.42188 385.83008 C 431.57358 387.7887 400.21762 394.46458 378.96094 398.76172 C 329.39996 389.69572 271.96266 366.35372 200.81055 343.88281 C 224.49124 305.08073 251.55716 252.58531 279.80859 169.55078 C 283.10803 165.99087 286.24557 162.28113 289.2207 158.42188 C 321.68979 162.81429 365.39332 162.89792 420.33203 158.67188 C 506.45934 147.33932 599.38977 136.29529 665.71484 134.41406 z M 527.49219 175.75391 C 542.8065 175.43124 560.82564 177.59772 581.47656 182.36328 C 614.20017 189.67046 630.67641 210.35724 630.99414 244.35156 C 631.31343 278.02817 621.79787 302.59462 602.41797 318.16211 C 583.35574 334.0473 567.47179 335.17514 554.76367 321.51367 C 549.04501 315.795 547.91609 311.23303 551.41211 307.73828 C 560.6255 304.87895 564.8913 297.67368 564.25586 286.23633 C 574.10469 274.16361 579.05664 263.91198 579.05664 255.33398 C 580.23495 226.46059 551.21499 230.57276 540.42969 239.04688 C 509.29489 218.39612 482.32585 209.27216 459.45117 211.49609 C 478.4605 178.06591 515.17901 176.01335 527.49219 175.75391 z M 468.85156 227.50586 C 488.28692 228.10156 509.01383 236.7014 530.93555 253.38086 L 527.58594 262.87305 C 531.39839 265.09698 535.07364 265.78319 538.56836 264.83008 C 543.65164 251.48651 549.33929 244.81838 555.69336 244.81836 C 563.31824 243.86526 566.84634 247.6876 566.21094 256.26562 C 566.21094 264.20821 561.85163 273.12968 553.27344 282.97852 C 553.27344 305.42676 535.82964 295.37636 537.54297 286.23633 C 533.73051 300.533 537.11162 318.67217 547.59766 340.59375 C 557.76416 362.83301 565.55804 379.84456 570.95898 391.59961 C 576.35997 403.35466 584.89339 409.57942 596.64844 410.21484 C 601.71819 410.48885 613.2315 411.59174 617.64062 413.47852 C 643.32235 424.46842 639.05792 443.85511 635.18359 474.99609 C 595.80622 568.60154 601.74852 654.32207 607.44727 760.18555 C 605.06511 804.27364 632.83338 833.73178 608.00586 926.70117 C 608.00586 926.70117 591.71763 960.76849 547.78516 956.30078 C 504.62292 951.91165 373.76575 749.27283 368.88867 744.17578 C 346.12173 720.38197 319.11164 692.25975 303.82617 646.35156 C 299.03801 631.97087 319.43329 626.99981 327.6543 629.41211 C 349.78433 635.90572 376.81435 694.99025 450.05078 765.67773 C 464.45025 775.79362 489.18377 778.8593 482.81445 751.5293 C 474.51116 730.52844 433.06471 567.47129 425.10547 555.97461 C 416.52746 543.58416 414.127 508.23095 417.93945 449.77344 C 416.35095 429.75809 432.77197 419.70898 467.08398 419.70898 C 502.66682 419.70898 518.9941 411.61891 516.13477 395.41602 L 509.43555 375.86914 C 505.9408 363.79639 504.51694 356.29683 505.15234 353.4375 C 498.16286 351.53127 488.35659 352.06839 475.64844 354.92773 C 454.04458 356.83395 441.29878 355.85543 437.48633 352.04297 C 433.67387 348.23053 432.39906 342.98428 433.66992 336.3125 L 448.93555 331.09961 C 452.43028 329.19339 453.11256 325.96153 450.88867 321.51367 L 429.38867 319.65039 C 434.47193 308.84846 433.88143 301.64513 427.52734 298.15039 C 418.9493 298.78579 414.68164 296.62623 414.68164 291.54297 C 416.90557 287.41282 421.32041 279.76419 427.99219 268.64453 C 434.66398 257.52492 442.75405 250.41532 452.28516 247.23828 C 462.13398 244.06122 471.79506 244.5046 481.32617 248.63477 C 490.85729 252.44721 499.92394 255.43818 508.50195 257.66211 L 510.92383 251.98438 C 502.98123 250.07816 494.74206 246.84434 486.16406 242.39648 C 469.64345 233.81849 455.3286 233.81849 443.25586 242.39648 C 444.84436 236.67782 447.0059 232.41207 449.86523 229.55273 C 456.06044 227.96423 462.37313 227.30733 468.85156 227.50586 z M 468.01562 251.98438 C 460.07302 251.98438 454.8268 253.25917 452.28516 255.80078 C 450.06122 258.3424 447.06832 259.61719 443.25586 259.61719 L 443.25586 263.89844 L 449.86523 264.82812 C 458.44323 273.40614 472.02046 274.53379 490.44727 268.17969 L 502.36133 271.5293 L 503.29102 262.87305 L 492.77344 261.94336 C 482.60693 256.22473 474.36971 252.93748 468.01562 251.98438 z " />
</svg>
